X: 27031
T: Miss Grace Speirs Of Elderslie
R: reel
M: 4/4
K: Gminor
b2 ab fbdB|cedB AcAF|b2 ab fbdB|AcFe dB B2:|
DBdB EBdB|FBdB GBdB|DBdB EBdB|AFcA BB,B,B|
DBdB EBdB|FBdB GBdB|DBbB gBfB|A/B/c Fe dB B2:|

